X: 1
T: Get Lost Jig
C: Ralph Page
R: jig
Z: 2012 John Chambers <jc:trillian.mit.edu>
B: Northern Junket, v.6, #7, Dec. 1958
N: Adjusted lengths of pickup notes to 2nd part.
M: 6/8
L: 1/8
K: G
D |\
G3 B3 | ded dBG | AGA BGD | EAG FED |\
G3 B3 | ded dBG | ABc BAG | DGF G2 :|
|: B/c/ |\
dBc d3 | ecd e3 | fde fed | gfe dBc |\
dBc d3 | ecd e3 | fed cAF | GAG G2 :|
